Obsidian/actions/16s/fcitx-googlepinyin.svg

<svg height="16" width="16" xmlns="http://www.w3.org/2000/svg"><path d="m2 0c-1.108 0-2 .892-2 2v12c0 1.108.892 2 2 2h12c1.108 0 2-.892 2-2v-12c0-1.108-.892-2-2-2zm5.8984 2.502c1.2942-.0235 2.5976.4066 3.6486 1.2929l-1.291 1.5293c-1.3468-1.1362-3.3052-1.1025-4.6095.082-1.3044 1.1847-1.5288 3.1323-.5274 4.5821 1.0014 1.4497 2.9014 1.9297 4.4707 1.1287.8822-.45 1.4832-1.2262 1.7462-2.1111h-3.336v-2l5.398-.0059c.434 2.3547-.709 4.781-2.898 5.898-2.4485 1.25-5.4631.491-7.0254-1.771-1.5623-2.2618-1.2088-5.3532.8262-7.2012 1.0175-.9241 2.3035-1.3998 3.5976-1.4238z" fill="#bebebe"/></svg>

<svg xmlns="http://www.w3.org/2000/svg" width="16" height="16" version="1.1">
 <defs>
  <style id="current-color-scheme" type="text/css">
   .ColorScheme-Text { color:#bebebe; } .ColorScheme-Highlight { color:#4285f4; }
  </style>
 </defs>
 <path style="fill:currentColor" class="ColorScheme-Text" d="M 2,0 C 0.892,0 0,0.892 0,2 V 14 C 0,15.108 0.892,16 2,16 H 14 C 15.108,16 16,15.108 16,14 V 2 C 16,0.892 15.108,0 14,0 Z M 7.8984,2.502 C 9.1926,2.4785 10.496,2.9086 11.547,3.7949 L 10.256,5.3242 C 8.9092,4.188 6.9508,4.2217 5.6465,5.4062 4.3421,6.5909 4.1177,8.5385 5.1191,9.9883 6.1205,11.438 8.0205,11.918 9.5898,11.117 10.472,10.667 11.073,9.8908 11.336,9.0059 H 8 V 7.0059 L 13.398,7 C 13.832,9.3547 12.689,11.781 10.5,12.898 8.0515,14.148 5.0369,13.389 3.4746,11.127 1.9123,8.8652 2.2658,5.7738 4.3008,3.9258 5.3183,3.0017 6.6043,2.526 7.8984,2.502 Z"/>
</svg>
